public/footer_figure.svg

<svg width="312" height="177" viewBox="0 0 312 177" fill="none" xmlns="http://www.w3.org/2000/svg">
<path d="M311.25 18.4885C311.25 18.8952 311.079 19.3569 310.626 19.8838C310.169 20.4157 309.454 20.9764 308.456 21.553C306.458 22.706 303.464 23.8431 299.539 24.9394C291.7 27.1287 280.322 29.1088 266.221 30.7747C238.028 34.1052 199.058 36.1672 156 36.1672C112.942 36.1672 73.972 34.1052 45.779 30.7747C31.678 29.1088 20.3 27.1287 12.461 24.9394C8.536 23.8431 5.54201 22.706 3.54401 21.553C2.54601 20.9764 1.83099 20.4157 1.37399 19.8838C0.920993 19.3569 0.75 18.8952 0.75 18.4885C0.75 18.0818 0.920993 17.6201 1.37399 17.0932C1.83099 16.5613 2.54601 16.0005 3.54401 15.424C5.54201 14.271 8.536 13.1338 12.461 12.0376C20.3 9.8483 31.678 7.8681 45.779 6.2023C73.972 2.8717 112.942 0.809799 156 0.809799C199.058 0.809799 238.028 2.8717 266.221 6.2023C280.322 7.8681 291.7 9.8483 299.539 12.0376C303.464 13.1338 306.458 14.271 308.456 15.424C309.454 16.0005 310.169 16.5613 310.626 17.0932C311.079 17.6201 311.25 18.0818 311.25 18.4885Z" stroke="white" stroke-width="1.5"/>
<path d="M311.25 64.247C311.25 65.822 310.341 67.474 308.343 69.185C306.35 70.891 303.367 72.571 299.454 74.191C291.634 77.43 280.273 80.363 266.179 82.832C238.003 87.768 199.049 90.826 156 90.826C112.951 90.826 73.997 87.768 45.821 82.832C31.727 80.363 20.366 77.43 12.546 74.191C8.63301 72.571 5.65 70.891 3.657 69.185C1.659 67.474 0.75 65.822 0.75 64.247C0.75 62.672 1.659 61.019 3.657 59.309C5.65 57.603 8.63301 55.9228 12.546 54.302C20.366 51.0632 31.727 48.1302 45.821 45.6611C73.997 40.725 112.951 37.6679 156 37.6679C199.049 37.6679 238.003 40.725 266.179 45.6611C280.273 48.1302 291.634 51.0632 299.454 54.302C303.367 55.9228 306.35 57.603 308.343 59.309C310.341 61.019 311.25 62.672 311.25 64.247Z" stroke="white" stroke-width="1.5"/>
<path d="M311.25 133.982C311.25 139.439 307.172 144.821 299.335 149.858C291.533 154.872 280.192 159.417 266.112 163.244C237.962 170.897 199.031 175.639 156 175.639C112.969 175.639 74.038 170.897 45.888 163.244C31.808 159.417 20.467 154.872 12.665 149.858C4.82799 144.821 0.75 139.439 0.75 133.982C0.75 128.525 4.82799 123.143 12.665 118.106C20.467 113.091 31.808 108.547 45.888 104.719C74.038 97.067 112.969 92.325 156 92.325C199.031 92.325 237.962 97.067 266.112 104.719C280.192 108.547 291.533 113.091 299.335 118.106C307.172 123.143 311.25 128.525 311.25 133.982Z" stroke="white" stroke-width="1.5"/>
<path d="M156 18.2899V133.747" stroke="white" stroke-width="1.5"/>
</svg>

<svg xmlns="http://www.w3.org/2000/svg" width="312" height="177" fill="none" stroke="#fff" stroke-width="1.5" xmlns:v="https://vecta.io/nano"><path d="M311.25 18.489c0 .407-.171.868-.624 1.395s-1.172 1.093-2.17 1.669c-1.998 1.153-4.992 2.29-8.917 3.386-7.839 2.189-19.217 4.169-33.318 5.835-28.193 3.331-67.163 5.393-110.221 5.393s-82.028-2.062-110.221-5.393c-14.101-1.666-25.479-3.646-33.318-5.835-3.925-1.096-6.919-2.233-8.917-3.386-.998-.577-1.713-1.137-2.17-1.669S.75 18.895.75 18.489s.171-.868.624-1.395 1.172-1.094 2.17-1.67c1.998-1.153 4.992-2.29 8.917-3.386 7.839-2.19 19.217-4.17 33.318-5.836C73.972 2.872 112.942.81 156 .81s82.028 2.062 110.221 5.393c14.101 1.666 25.479 3.646 33.318 5.835 3.925 1.096 6.919 2.233 8.917 3.386.998.576 1.713 1.137 2.17 1.669s.624.989.624 1.395zm0 45.758c0 1.575-.909 3.227-2.907 4.938s-4.976 3.386-8.889 5.006c-7.82 3.239-19.181 6.172-33.275 8.641-28.176 4.936-67.13 7.994-110.179 7.994s-82.003-3.058-110.179-7.994c-14.094-2.469-25.455-5.402-33.275-8.641-3.913-1.62-6.896-3.3-8.889-5.006S.75 65.822.75 64.247s.909-3.228 2.907-4.938 4.976-3.386 8.889-5.007c7.82-3.239 19.181-6.172 33.275-8.641 28.176-4.936 67.13-7.993 110.179-7.993s82.003 3.057 110.179 7.993c14.094 2.469 25.455 5.402 33.275 8.641 3.913 1.621 6.896 3.301 8.889 5.007s2.907 3.363 2.907 4.938zm0 69.735c0 5.457-4.078 10.839-11.915 15.876-7.802 5.014-19.143 9.559-33.223 13.386-28.15 7.653-67.081 12.395-110.112 12.395s-81.962-4.742-110.112-12.395c-14.08-3.827-25.421-8.372-33.223-13.386C4.828 144.821.75 139.439.75 133.982s4.078-10.839 11.915-15.876c7.802-5.015 19.143-9.559 33.223-13.387C74.038 97.067 112.969 92.325 156 92.325s81.962 4.742 110.112 12.394c14.08 3.828 25.421 8.372 33.223 13.387 7.837 5.037 11.915 10.419 11.915 15.876z"/><path d="M156 18.29v115.457"/></svg>
